TrafficJam2023/images/main-page/timer-line-tablet.svg

<svg width="152" height="197" viewBox="0 0 152 197" fill="none" xmlns="http://www.w3.org/2000/svg">
<g filter="url(#filter0_bdddiii_187_1982)">
<path d="M30 27L20 31.7735L20 20.2265L30 25L30 27ZM126 165.667C128.946 165.667 131.333 168.054 131.333 171C131.333 173.946 128.946 176.333 126 176.333C123.054 176.333 120.667 173.946 120.667 171C120.667 168.054 123.054 165.667 126 165.667ZM121.31 83.4559L122.016 82.7485L121.31 83.4559ZM68.4974 30.6822L69.2042 29.9748L68.4974 30.6822ZM29 25L57.1878 25L57.1878 27L29 27L29 25ZM127 94.7737L127 171L125 171L125 94.7737L127 94.7737ZM69.2042 29.9748L122.016 82.7485L120.603 84.1632L67.7905 31.3895L69.2042 29.9748ZM125 94.7737C125 90.7935 123.418 86.9766 120.603 84.1632L122.016 82.7485C125.207 85.937 127 90.2629 127 94.7737L125 94.7737ZM57.1878 25C61.6943 25 66.0165 26.7894 69.2042 29.9748L67.7905 31.3895C64.9778 28.5789 61.1641 27 57.1878 27L57.1878 25Z" fill="#FCFDFD"/>
</g>
<defs>
<filter id="filter0_bdddiii_187_1982" x="0" y="0.226562" width="151.333" height="196.107" filterUnits="userSpaceOnUse" color-interpolation-filters="sRGB">
<feFlood flood-opacity="0" result="BackgroundImageFix"/>
<feGaussianBlur in="BackgroundImageFix" stdDeviation="5.5"/>
<feComposite in2="SourceAlpha" operator="in" result="effect1_backgroundBlur_187_1982"/>
<feColorMatrix in="SourceAlpha" type="matrix" values="0 0 0 0 0 0 0 0 0 0 0 0 0 0 0 0 0 0 127 0" result="hardAlpha"/>
<feOffset/>
<feGaussianBlur stdDeviation="10"/>
<feComposite in2="hardAlpha" operator="out"/>
<feColorMatrix type="matrix" values="0 0 0 0 0 0 0 0 0 0.52 0 0 0 0 1 0 0 0 1 0"/>
<feBlend mode="normal" in2="effect1_backgroundBlur_187_1982" result="effect2_dropShadow_187_1982"/>
<feColorMatrix in="SourceAlpha" type="matrix" values="0 0 0 0 0 0 0 0 0 0 0 0 0 0 0 0 0 0 127 0" result="hardAlpha"/>
<feOffset/>
<feGaussianBlur stdDeviation="10"/>
<feComposite in2="hardAlpha" operator="out"/>
<feColorMatrix type="matrix" values="0 0 0 0 0 0 0 0 0 0.52 0 0 0 0 1 0 0 0 1 0"/>
<feBlend mode="normal" in2="effect2_dropShadow_187_1982" result="effect3_dropShadow_187_1982"/>
<feColorMatrix in="SourceAlpha" type="matrix" values="0 0 0 0 0 0 0 0 0 0 0 0 0 0 0 0 0 0 127 0" result="hardAlpha"/>
<feOffset/>
<feGaussianBlur stdDeviation="3.5"/>
<feComposite in2="hardAlpha" operator="out"/>
<feColorMatrix type="matrix" values="0 0 0 0 1 0 0 0 0 1 0 0 0 0 1 0 0 0 1 0"/>
<feBlend mode="normal" in2="effect3_dropShadow_187_1982" result="effect4_dropShadow_187_1982"/>
<feBlend mode="normal" in="SourceGraphic" in2="effect4_dropShadow_187_1982" result="shape"/>
<feColorMatrix in="SourceAlpha" type="matrix" values="0 0 0 0 0 0 0 0 0 0 0 0 0 0 0 0 0 0 127 0" result="hardAlpha"/>
<feOffset/>
<feGaussianBlur stdDeviation="10"/>
<feComposite in2="hardAlpha" operator="arithmetic" k2="-1" k3="1"/>
<feColorMatrix type="matrix" values="0 0 0 0 0 0 0 0 0 0.88 0 0 0 0 1 0 0 0 1 0"/>
<feBlend mode="normal" in2="shape" result="effect5_innerShadow_187_1982"/>
<feColorMatrix in="SourceAlpha" type="matrix" values="0 0 0 0 0 0 0 0 0 0 0 0 0 0 0 0 0 0 127 0" result="hardAlpha"/>
<feOffset/>
<feGaussianBlur stdDeviation="10"/>
<feComposite in2="hardAlpha" operator="arithmetic" k2="-1" k3="1"/>
<feColorMatrix type="matrix" values="0 0 0 0 0 0 0 0 0 0.88 0 0 0 0 1 0 0 0 1 0"/>
<feBlend mode="normal" in2="effect5_innerShadow_187_1982" result="effect6_innerShadow_187_1982"/>
<feColorMatrix in="SourceAlpha" type="matrix" values="0 0 0 0 0 0 0 0 0 0 0 0 0 0 0 0 0 0 127 0" result="hardAlpha"/>
<feOffset/>
<feGaussianBlur stdDeviation="3.5"/>
<feComposite in2="hardAlpha" operator="arithmetic" k2="-1" k3="1"/>
<feColorMatrix type="matrix" values="0 0 0 0 1 0 0 0 0 1 0 0 0 0 1 0 0 0 1 0"/>
<feBlend mode="normal" in2="effect6_innerShadow_187_1982" result="effect7_innerShadow_187_1982"/>
</filter>
</defs>
</svg>

<svg xmlns="http://www.w3.org/2000/svg" width="152" height="197" fill="none" viewBox="0 0 152 197"><g filter="url(#a)"><path fill="#FCFDFD" d="m30 27-10 4.773V20.227L30 25v2Zm96 138.667a5.332 5.332 0 0 1 5.333 5.333 5.332 5.332 0 0 1-5.333 5.333 5.332 5.332 0 0 1-5.333-5.333 5.332 5.332 0 0 1 5.333-5.333Zm-4.69-82.211.706-.707-.706.707ZM68.497 30.682l.707-.707-.707.707ZM29 25h28.188v2H29v-2Zm98 69.774V171h-2V94.774h2Zm-57.796-64.8 52.812 52.775-1.413 1.414L67.79 31.39l1.414-1.415ZM125 94.775a15 15 0 0 0-4.397-10.61l1.413-1.415A17 17 0 0 1 127 94.774h-2ZM57.188 25a17 17 0 0 1 12.016 4.975l-1.413 1.415A15 15 0 0 0 57.187 27v-2Z"/></g><defs><filter id="a" width="151.333" height="196.107" x="0" y="0.226562" color-interpolation-filters="sRGB" filterUnits="userSpaceOnUse"><feFlood flood-opacity="0" result="BackgroundImageFix"/><feGaussianBlur in="BackgroundImageFix" stdDeviation="5.5"/><feComposite in2="SourceAlpha" operator="in" result="effect1_backgroundBlur_187_1982"/><feColorMatrix in="SourceAlpha" result="hardAlpha" values="0 0 0 0 0 0 0 0 0 0 0 0 0 0 0 0 0 0 127 0"/><feOffset/><feGaussianBlur stdDeviation="10"/><feComposite in2="hardAlpha" operator="out"/><feColorMatrix values="0 0 0 0 0 0 0 0 0 0.52 0 0 0 0 1 0 0 0 1 0"/><feBlend in2="effect1_backgroundBlur_187_1982" result="effect2_dropShadow_187_1982"/><feColorMatrix in="SourceAlpha" result="hardAlpha" values="0 0 0 0 0 0 0 0 0 0 0 0 0 0 0 0 0 0 127 0"/><feOffset/><feGaussianBlur stdDeviation="10"/><feComposite in2="hardAlpha" operator="out"/><feColorMatrix values="0 0 0 0 0 0 0 0 0 0.52 0 0 0 0 1 0 0 0 1 0"/><feBlend in2="effect2_dropShadow_187_1982" result="effect3_dropShadow_187_1982"/><feColorMatrix in="SourceAlpha" result="hardAlpha" values="0 0 0 0 0 0 0 0 0 0 0 0 0 0 0 0 0 0 127 0"/><feOffset/><feGaussianBlur stdDeviation="3.5"/><feComposite in2="hardAlpha" operator="out"/><feColorMatrix values="0 0 0 0 1 0 0 0 0 1 0 0 0 0 1 0 0 0 1 0"/><feBlend in2="effect3_dropShadow_187_1982" result="effect4_dropShadow_187_1982"/><feBlend in="SourceGraphic" in2="effect4_dropShadow_187_1982" result="shape"/><feColorMatrix in="SourceAlpha" result="hardAlpha" values="0 0 0 0 0 0 0 0 0 0 0 0 0 0 0 0 0 0 127 0"/><feOffset/><feGaussianBlur stdDeviation="10"/><feComposite in2="hardAlpha" k2="-1" k3="1" operator="arithmetic"/><feColorMatrix values="0 0 0 0 0 0 0 0 0 0.88 0 0 0 0 1 0 0 0 1 0"/><feBlend in2="shape" result="effect5_innerShadow_187_1982"/><feColorMatrix in="SourceAlpha" result="hardAlpha" values="0 0 0 0 0 0 0 0 0 0 0 0 0 0 0 0 0 0 127 0"/><feOffset/><feGaussianBlur stdDeviation="10"/><feComposite in2="hardAlpha" k2="-1" k3="1" operator="arithmetic"/><feColorMatrix values="0 0 0 0 0 0 0 0 0 0.88 0 0 0 0 1 0 0 0 1 0"/><feBlend in2="effect5_innerShadow_187_1982" result="effect6_innerShadow_187_1982"/><feColorMatrix in="SourceAlpha" result="hardAlpha" values="0 0 0 0 0 0 0 0 0 0 0 0 0 0 0 0 0 0 127 0"/><feOffset/><feGaussianBlur stdDeviation="3.5"/><feComposite in2="hardAlpha" k2="-1" k3="1" operator="arithmetic"/><feColorMatrix values="0 0 0 0 1 0 0 0 0 1 0 0 0 0 1 0 0 0 1 0"/><feBlend in2="effect6_innerShadow_187_1982" result="effect7_innerShadow_187_1982"/></filter></defs></svg>
